; generated by PrusaSlicer 2.3.3+win64 on 2021-10-02 at 01:11:33 UTC


;
;

;
;
; 

; external perimeters extrusion width = 0.45mm
; perimeters extrusion width = 0.45mm
; infill extrusion width = 0.45mm
; solid infill extrusion width = 0.45mm
; top infill extrusion width = 0.40mm
; support material extrusion width = 0.35mm
; first layer extrusion width = 0.42mm

M73 P0 R30
M201 X1250 Y1250 Z400 E5000 ; sets maximum accelerations, mm/sec^2
M203 X180 Y180 Z12 E80 ; sets maximum feedrates, mm/sec
M204 P1250 R1250 T1250 ; sets acceleration (P, T) and retract acceleration (R), mm/sec^2
M205 X8.00 Y8.00 Z2.00 E10.00 ; sets the jerk limits, mm/sec
M205 S0 T0 ; sets the minimum extruding and travel feed rate, mm/sec
M107
;TYPE:Custom
G90 ; use absolute coordinates
M83 ; extruder relative mode
M104 S170 ; set extruder temp for bed leveling
M140 S60 ; set bed temp
M109 R170 ; wait for bed leveling temp
M190 S60 ; wait for bed temp
G28 ; home all without mesh bed level
G29 ; mesh bed leveling 
M104 S215 ; set extruder temp
G92 E0.0
G1 Y-2.0 X179 F2400
G1 Z3 F720
M109 S215 ; wait for extruder temp

; intro line
G1 X170 F1000
G1 Z0.2 F720
G1 X110.0 E8.0 F900
G1 X40.0 E10.0 F700
G92 E0.0

M221 S95 ; set flow
G21 ; set units to millimeters
G90 ; use absolute coordinates
M83 ; use relative distances for extrusion
M900 K0.2 ; Filament gcode LA 1.5
; ; Filament gcode LA 1.0
;LAYER_CHANGE
;Z:0.35
;HEIGHT:0.35
;BEFORE_LAYER_CHANGE
G92 E0.0
;0.35


G1 E-3.20000 F4200.000
G1 Z0.200 F7800.000
G1 Z0.350
;AFTER_LAYER_CHANGE
;0.35
G1 Z0.550
G1 X8.728 Y1.298
G1 Z0.350
G1 E3.20000 F2400.000
;TYPE:Skirt
;WIDTH:0.42
G1 F1800.000
G1 X10.056 Y0.739 E0.07230
G1 X10.857 Y0.559 E0.04120
G1 X11.675 Y0.485 E0.04120
G1 X25.639 Y0.328 E0.70088
G1 X29.517 Y0.583 E0.19505
G1 X30.655 Y0.899 E0.05925
G1 X31.714 Y1.420 E0.05925
G1 X32.763 Y2.226 E0.06640
G1 X35.859 Y5.356 E0.22092
G1 X36.563 Y6.296 E0.05894
G1 X37.079 Y7.344 E0.05863
G1 X37.380 Y8.390 E0.05459
G1 X37.498 Y9.477 E0.05490
G1 X37.499 Y26.914 E0.87508
G1 X37.333 Y28.295 E0.06982
G1 X36.870 Y29.607 E0.06982
G1 X36.456 Y30.337 E0.04213
G1 X35.949 Y31.007 E0.04213
G1 X32.836 Y34.258 E0.22588
M73 P1 R30
G1 X32.180 Y34.761 E0.04151
G1 X31.463 Y35.174 E0.04151
G1 X30.699 Y35.490 E0.04151
G1 X29.900 Y35.704 E0.04151
G1 X28.769 Y35.826 E0.05708
G1 X13.759 Y35.980 E0.75337
G1 X10.586 Y35.749 E0.15963
G1 X9.684 Y35.538 E0.04649
G1 X8.823 Y35.198 E0.04649
G1 X8.004 Y34.726 E0.04743
G1 X7.260 Y34.133 E0.04774
G1 X4.213 Y30.921 E0.22221
G1 X3.738 Y30.274 E0.04026
G1 X3.349 Y29.572 E0.04026
G1 X3.052 Y28.827 E0.04026
G1 X2.851 Y28.051 E0.04026
G1 X2.736 Y26.888 E0.05863
G1 X2.738 Y9.458 E0.87474
G1 X2.914 Y8.121 E0.06764
G1 X3.366 Y6.858 E0.06733
G1 X3.800 Y6.097 E0.04400
G1 X4.340 Y5.397 E0.04431
G1 X7.557 Y2.147 E0.22951
G1 X8.680 Y1.334 E0.06960
G1 E-2.24000 F4200.000
;WIPE_START
G1 F6240.000
G1 X9.989 Y0.768 E-0.91200
;WIPE_END
G1 E-0.04800 F4200.000
G1 Z0.550 F7800.000
G1 X14.548 Y12.455
G1 Z0.350
G1 E3.20000 F2400.000
;TYPE:Support material interface
;WIDTH:0.35
G1 F1800.000
G1 X14.548 Y23.726 E0.45084
G1 X14.834 Y23.726 E0.01142
G1 X14.834 Y12.584 E0.44570
G1 X15.119 Y12.584 E0.01142
G1 X15.119 Y23.726 E0.44570
G1 X15.405 Y23.726 E0.01142
G1 X15.405 Y12.584 E0.44570
G1 X15.691 Y12.584 E0.01142
G1 X15.691 Y23.726 E0.44570
G1 X15.976 Y23.726 E0.01142
G1 X15.976 Y12.584 E0.44570
G1 X16.262 Y12.584 E0.01142
G1 X16.262 Y23.855 E0.45084
G1 E-2.24000 F4200.000
;WIPE_START
G1 F6240.000
G1 X16.262 Y22.428 E-0.91200
;WIPE_END
G1 E-0.04800 F4200.000
G1 Z0.550 F7800.000
G1 X19.428 Y20.886
G1 Z0.350
G1 E3.20000 F2400.000
;TYPE:Support material
;WIDTH:0.42
G1 F1800.000
G1 X19.428 Y21.243 E0.01789
G1 X19.753 Y21.299 E0.01656
G1 X20.118 Y21.319 E0.01833
G1 X20.118 Y21.041 E0.01394
G1 X20.807 Y21.041 E0.03462
G1 X20.807 Y21.403 E0.01814
G1 E-2.24000 F4200.000
;WIPE_START
G1 F6240.000
G1 X20.807 Y21.041 E-0.23107
G1 X20.118 Y21.041 E-0.44106
G1 X20.118 Y21.319 E-0.17763
G1 X20.020 Y21.314 E-0.06225
;WIPE_END
G1 E-0.04800 F4200.000
G1 Z0.550 F7800.000
G1 X25.687 Y23.855
G1 Z0.350
G1 E3.20000 F2400.000
;TYPE:Support material interface
;WIDTH:0.35
G1 F1800.000
G1 X25.687 Y12.584 E0.45084
G1 X25.402 Y12.584 E0.01142
G1 X25.402 Y23.726 E0.44570
G1 X25.116 Y23.726 E0.01142
G1 X25.116 Y12.584 E0.44570
G1 X24.830 Y12.584 E0.01142
G1 X24.830 Y23.726 E0.44570
G1 X24.545 Y23.726 E0.01142
G1 X24.545 Y12.584 E0.44570
G1 X24.259 Y12.584 E0.01142
G1 X24.259 Y23.726 E0.44570
G1 X23.973 Y23.726 E0.01142
G1 X23.973 Y12.584 E0.44570
G1 X23.688 Y12.584 E0.01142
G1 X23.688 Y23.726 E0.44570
G1 X23.402 Y23.726 E0.01142
G1 X23.402 Y19.303 E0.17694
G1 X23.279 Y19.611 E0.01328
G1 X23.117 Y19.919 E0.01392
G1 X23.117 Y23.726 E0.15229
G1 X22.831 Y23.726 E0.01142
G1 X22.831 Y20.333 E0.13571
G1 X22.545 Y20.647 E0.01697
G1 X22.545 Y23.726 E0.12315
G1 X22.260 Y23.726 E0.01142
G1 X22.260 Y20.897 E0.11315
G1 X21.974 Y21.098 E0.01396
G1 X21.974 Y23.726 E0.10512
G1 X21.689 Y23.726 E0.01142
G1 X21.689 Y21.260 E0.09863
G1 X21.403 Y21.388 E0.01252
G1 X21.403 Y23.726 E0.09352
G1 X21.117 Y23.726 E0.01142
G1 X21.117 Y21.488 E0.08951
G1 X20.832 Y21.561 E0.01179
G1 X20.832 Y23.726 E0.08660
G1 X20.546 Y23.726 E0.01142
G1 X20.546 Y21.608 E0.08473
G1 X20.260 Y21.631 E0.01146
G1 X20.260 Y23.726 E0.08379
G1 X19.975 Y23.726 E0.01142
G1 X19.975 Y21.632 E0.08375
G1 X19.689 Y21.609 E0.01146
G1 X19.689 Y23.726 E0.08469
G1 X19.404 Y23.726 E0.01142
G1 X19.404 Y21.560 E0.08664
G1 X19.118 Y21.488 E0.01179
G1 X19.118 Y23.726 E0.08954
G1 X18.832 Y23.726 E0.01142
G1 X18.832 Y21.390 E0.09345
G1 X18.547 Y21.260 E0.01256
G1 X18.547 Y23.726 E0.09866
G1 X18.261 Y23.726 E0.01142
G1 X18.261 Y21.098 E0.10512
G1 X17.975 Y20.897 E0.01397
G1 X17.975 Y23.726 E0.11317
G1 X17.690 Y23.726 E0.01142
G1 X17.690 Y20.649 E0.12308
G1 X17.404 Y20.334 E0.01702
G1 X17.404 Y23.726 E0.13570
G1 X17.119 Y23.726 E0.01142
G1 X17.119 Y19.922 E0.15217
G1 X17.000 Y19.704 E0.00991
G1 X16.833 Y19.306 E0.01727
G1 X16.833 Y23.726 E0.17681
G1 X16.547 Y23.726 E0.01142
G1 X16.547 Y12.584 E0.44570
G1 X16.833 Y12.584 E0.01142
G1 X16.833 Y17.004 E0.17681
G1 X17.000 Y16.606 E0.01727
G1 X17.119 Y16.388 E0.00991
G1 X17.119 Y12.584 E0.15218
G1 X17.404 Y12.584 E0.01142
G1 X17.404 Y15.976 E0.13570
G1 X17.690 Y15.661 E0.01702
G1 X17.690 Y12.584 E0.12309
G1 X17.975 Y12.584 E0.01142
G1 X17.975 Y15.413 E0.11317
G1 X18.261 Y15.212 E0.01397
G1 X18.261 Y12.584 E0.10512
G1 X18.547 Y12.584 E0.01142
G1 X18.547 Y15.050 E0.09866
G1 X18.832 Y14.920 E0.01256
G1 X18.832 Y12.584 E0.09345
G1 X19.118 Y12.584 E0.01142
G1 X19.118 Y14.822 E0.08954
G1 X19.404 Y14.750 E0.01179
G1 X19.404 Y12.584 E0.08664
G1 X19.689 Y12.584 E0.01142
G1 X19.689 Y14.701 E0.08469
G1 X19.975 Y14.677 E0.01146
G1 X19.975 Y12.584 E0.08375
G1 X20.260 Y12.584 E0.01142
G1 X20.260 Y14.678 E0.08379
G1 X20.546 Y14.702 E0.01146
G1 X20.546 Y12.584 E0.08473
G1 X20.832 Y12.584 E0.01142
G1 X20.832 Y14.749 E0.08660
G1 X21.117 Y14.821 E0.01179
G1 X21.117 Y12.584 E0.08951
G1 X21.403 Y12.584 E0.01142
G1 X21.403 Y14.922 E0.09352
G1 X21.689 Y15.049 E0.01252
G1 X21.689 Y12.584 E0.09863
G1 X21.974 Y12.584 E0.01142
G1 X21.974 Y15.212 E0.10513
G1 X22.260 Y15.412 E0.01396
G1 X22.260 Y12.584 E0.11315
G1 X22.545 Y12.584 E0.01142
G1 X22.545 Y15.663 E0.12316
G1 X22.831 Y15.976 E0.01697
G1 X22.831 Y12.584 E0.13571
G1 X23.117 Y12.584 E0.01142
G1 X23.117 Y16.391 E0.15229
G1 X23.279 Y16.699 E0.01392
G1 X23.402 Y17.007 E0.01328
G1 X23.402 Y12.455 E0.18208
G1 E-2.24000 F4200.000
;WIPE_START
G1 F6240.000
G1 X23.402 Y13.881 E-0.91200
;WIPE_END
G1 E-0.04800 F4200.000
G1 Z0.550 F7800.000
G1 X20.807 Y15.423
G1 Z0.350
G1 E3.20000 F2400.000
;TYPE:Support material
;WIDTH:0.42
G1 F1800.000
G1 X20.807 Y15.066 E0.01795
G1 X20.380 Y15.000 E0.02171
G1 X20.118 Y14.991 E0.01317
G1 X20.118 Y15.268 E0.01394
G1 X19.428 Y15.268 E0.03462
G1 X19.428 Y14.908 E0.01807
G1 E-2.24000 F4200.000
;WIPE_START
G1 F6240.000
G1 X19.428 Y15.268 E-0.23027
G1 X20.118 Y15.268 E-0.44106
G1 X20.118 Y14.991 E-0.17760
G1 X20.216 Y14.994 E-0.06307
;WIPE_END
G1 E-0.04800 F4200.000
G1 Z0.550 F7800.000
G1 X25.636 Y6.673
G1 Z0.350
G1 E3.20000 F2400.000
G1 F1800.000
G1 X25.636 Y12.268 E0.28083
G1 X24.946 Y12.268 E0.03462
G1 X24.946 Y6.828 E0.27304
G1 X24.256 Y6.828 E0.03462
G1 X24.256 Y12.268 E0.27304
G1 X23.567 Y12.268 E0.03462
G1 X23.567 Y6.828 E0.27304
G1 X22.877 Y6.828 E0.03462
G1 X22.877 Y12.268 E0.27304
M73 P2 R30
G1 X22.187 Y12.268 E0.03462
G1 X22.187 Y6.828 E0.27304
G1 X21.497 Y6.828 E0.03462
G1 X21.497 Y12.268 E0.27304
G1 X20.807 Y12.268 E0.03462
G1 X20.807 Y6.828 E0.27304
G1 X20.118 Y6.828 E0.03462
G1 X20.118 Y12.268 E0.27304
G1 X19.428 Y12.268 E0.03462
G1 X19.428 Y6.828 E0.27304
G1 X18.738 Y6.828 E0.03462
G1 X18.738 Y12.268 E0.27304
G1 X18.048 Y12.268 E0.03462
G1 X18.048 Y6.828 E0.27304
G1 X17.359 Y6.828 E0.03462
G1 X17.359 Y12.268 E0.27304
G1 X16.669 Y12.268 E0.03462
G1 X16.669 Y6.828 E0.27304
G1 X15.979 Y6.828 E0.03462
G1 X15.979 Y12.268 E0.27304
G1 X15.289 Y12.268 E0.03462
G1 X15.289 Y6.828 E0.27304
G1 X14.599 Y6.828 E0.03462
G1 X14.599 Y12.268 E0.27304
G1 X14.231 Y12.268 E0.01849
G1 X14.231 Y24.041 E0.59085
G1 X14.599 Y24.041 E0.01848
G1 X14.599 Y29.482 E0.27304
G1 X15.289 Y29.482 E0.03462
G1 X15.289 Y24.041 E0.27304
G1 X15.979 Y24.041 E0.03462
G1 X15.979 Y29.482 E0.27304
G1 X16.669 Y29.482 E0.03462
G1 X16.669 Y24.041 E0.27304
G1 X17.359 Y24.041 E0.03462
G1 X17.359 Y29.482 E0.27304
G1 X18.048 Y29.482 E0.03462
G1 X18.048 Y24.041 E0.27304
G1 X18.738 Y24.041 E0.03462
G1 X18.738 Y29.482 E0.27304
G1 X19.428 Y29.482 E0.03462
G1 X19.428 Y24.041 E0.27304
G1 X20.118 Y24.041 E0.03462
G1 X20.118 Y29.482 E0.27304
G1 X20.807 Y29.482 E0.03462
G1 X20.807 Y24.041 E0.27304
G1 X21.497 Y24.041 E0.03462
G1 X21.497 Y29.482 E0.27304
G1 X22.187 Y29.482 E0.03462
G1 X22.187 Y24.041 E0.27304
G1 X22.877 Y24.041 E0.03462
G1 X22.877 Y29.482 E0.27304
G1 X23.567 Y29.482 E0.03462
G1 X23.567 Y24.041 E0.27304
G1 X24.256 Y24.041 E0.03462
G1 X24.256 Y29.482 E0.27304
G1 X24.946 Y29.482 E0.03462
G1 X24.946 Y24.041 E0.27304
G1 X25.636 Y24.041 E0.03462
G1 X25.636 Y29.482 E0.27304
G1 X26.326 Y29.482 E0.03462
G1 X26.326 Y6.828 E1.13693
G1 X27.015 Y6.828 E0.03462
G1 X27.015 Y29.482 E1.13693
G1 X27.705 Y29.482 E0.03462
G1 X27.705 Y6.828 E1.13693
G1 X28.395 Y6.828 E0.03462
G1 X28.395 Y29.482 E1.13693
G1 X28.659 Y29.482 E0.01326
G1 X28.659 Y26.696 E0.13980
G1 X29.085 Y26.696 E0.02136
G1 X29.085 Y9.613 E0.85733
M73 P2 R29
G1 X29.775 Y9.613 E0.03462
G1 X29.775 Y26.696 E0.85733
G1 X30.464 Y26.696 E0.03462
G1 X30.464 Y9.613 E0.85733
G1 X31.154 Y9.613 E0.03462
G1 X31.154 Y26.852 E0.86512
G1 E-2.24000 F4200.000
;WIPE_START
G1 F6240.000
G1 X31.154 Y25.425 E-0.91200
;WIPE_END
G1 E-0.04800 F4200.000
G1 Z0.550 F7800.000
G1 X13.910 Y29.637
G1 Z0.350
G1 E3.20000 F2400.000
G1 F1800.000
G1 X13.910 Y6.828 E1.14472
G1 X13.220 Y6.828 E0.03462
G1 X13.220 Y29.482 E1.13693
G1 X12.530 Y29.482 E0.03462
G1 X12.530 Y6.828 E1.13693
G1 X11.840 Y6.828 E0.03462
G1 X11.840 Y29.482 E1.13693
G1 X11.576 Y29.482 E0.01326
G1 X11.576 Y26.696 E0.13980
G1 X11.151 Y26.696 E0.02136
G1 X11.151 Y9.613 E0.85733
G1 X10.461 Y9.613 E0.03462
G1 X10.461 Y26.696 E0.85733
G1 X9.771 Y26.696 E0.03462
G1 X9.771 Y9.613 E0.85733
M73 P3 R29
G1 X9.081 Y9.613 E0.03462
G1 X9.081 Y26.852 E0.86512
G1 E-2.24000 F4200.000
;WIPE_START
G1 F6240.000
G1 X9.081 Y25.425 E-0.91200
;WIPE_END
G1 E-0.04800 F4200.000
G1 Z0.550 F7800.000
G1 X19.563 Y18.649
G1 Z0.350
G1 E3.20000 F2400.000
;TYPE:Perimeter
G1 F1800.000
G1 X19.477 Y18.530 E0.00738
G1 X19.415 Y18.396 E0.00738
G1 X19.381 Y18.253 E0.00738
G1 X19.377 Y18.106 E0.00738
G1 X19.401 Y17.961 E0.00738
G1 X19.453 Y17.823 E0.00738
G1 X19.532 Y17.699 E0.00738
G1 X19.633 Y17.592 E0.00738
G1 X19.753 Y17.508 E0.00738
G1 X19.888 Y17.449 E0.00738
G1 X20.033 Y17.417 E0.00742
G1 X20.189 Y17.414 E0.00785
G1 X20.416 Y17.475 E0.01180
G1 X20.544 Y17.547 E0.00738
G1 X20.656 Y17.643 E0.00738
G1 X20.746 Y17.759 E0.00738
G1 X20.812 Y17.891 E0.00738
G1 X20.850 Y18.033 E0.00740
G1 X20.860 Y18.178 E0.00731
G1 X20.841 Y18.325 E0.00745
G1 X20.793 Y18.464 E0.00738
G1 X20.719 Y18.591 E0.00738
G1 X20.621 Y18.701 E0.00738
G1 X20.503 Y18.790 E0.00738
G1 X20.370 Y18.853 E0.00738
G1 X20.228 Y18.889 E0.00738
G1 X20.081 Y18.897 E0.00738
G1 X19.935 Y18.875 E0.00738
G1 X19.797 Y18.825 E0.00738
G1 X19.607 Y18.689 E0.01170
G1 X19.374 Y18.943 F7800.000
G1 F1800.000
G1 X19.304 Y18.879 E0.00473
G1 X19.177 Y18.705 E0.01083
G1 X19.087 Y18.509 E0.01083
G1 X19.038 Y18.299 E0.01083
G1 X19.031 Y18.083 E0.01083
G1 X19.066 Y17.870 E0.01083
G1 X19.143 Y17.668 E0.01083
G1 X19.258 Y17.486 E0.01083
G1 X19.407 Y17.330 E0.01083
G1 X19.583 Y17.206 E0.01083
G1 X19.781 Y17.119 E0.01083
G1 X19.992 Y17.073 E0.01085
G1 X20.211 Y17.069 E0.01097
G1 X20.342 Y17.088 E0.00665
G1 X20.555 Y17.157 E0.01125
G1 X20.743 Y17.263 E0.01083
G1 X20.907 Y17.404 E0.01083
G1 X21.039 Y17.574 E0.01083
G1 X21.136 Y17.767 E0.01083
G1 X21.192 Y17.976 E0.01084
G1 X21.206 Y18.190 E0.01075
G1 X21.178 Y18.405 E0.01090
G1 X21.108 Y18.609 E0.01082
G1 X20.999 Y18.795 E0.01083
G1 X20.855 Y18.956 E0.01083
G1 X20.683 Y19.086 E0.01083
G1 X20.488 Y19.179 E0.01083
G1 X20.279 Y19.232 E0.01083
G1 X20.064 Y19.243 E0.01083
G1 X19.850 Y19.211 E0.01083
G1 X19.647 Y19.137 E0.01083
G1 X19.418 Y18.984 E0.01387
G1 X19.184 Y19.238 F7800.000
;TYPE:External perimeter
G1 F1800.000
G1 X19.045 Y19.110 E0.00947
G1 X18.878 Y18.880 E0.01427
G1 X18.760 Y18.621 E0.01427
G1 X18.694 Y18.344 E0.01427
G1 X18.685 Y18.060 E0.01427
G1 X18.732 Y17.779 E0.01427
G1 X18.833 Y17.514 E0.01427
G1 X18.985 Y17.273 E0.01427
G1 X19.181 Y17.067 E0.01427
G1 X19.413 Y16.904 E0.01427
G1 X19.674 Y16.789 E0.01427
G1 X19.952 Y16.729 E0.01428
G1 X20.233 Y16.723 E0.01410
G1 X20.421 Y16.751 E0.00953
G1 X20.694 Y16.840 E0.01443
G1 X20.942 Y16.979 E0.01427
G1 X21.158 Y17.165 E0.01427
G1 X21.333 Y17.390 E0.01427
G1 X21.460 Y17.644 E0.01427
G1 X21.534 Y17.919 E0.01428
G1 X21.553 Y18.201 E0.01419
G1 X21.515 Y18.484 E0.01435
G1 X21.423 Y18.753 E0.01427
G1 X21.279 Y18.999 E0.01427
G1 X21.090 Y19.211 E0.01427
G1 X20.863 Y19.382 E0.01427
G1 X20.606 Y19.505 E0.01427
G1 X20.331 Y19.575 E0.01427
G1 X20.046 Y19.589 E0.01427
G1 X19.765 Y19.547 E0.01427
G1 X19.498 Y19.450 E0.01427
G1 X19.228 Y19.278 E0.01604
G1 X19.210 Y19.051 F7800.000
G1 E-2.24000 F4200.000
;WIPE_START
G1 F6240.000
G1 X19.045 Y19.110 E-0.15900
G1 X18.878 Y18.880 E-0.18188
G1 X18.760 Y18.621 E-0.18188
G1 X18.694 Y18.344 E-0.18188
G1 X18.685 Y18.060 E-0.18188
G1 X18.691 Y18.021 E-0.02550
;WIPE_END
G1 E-0.04800 F4200.000
G1 Z0.550 F7800.000
G1 X20.755 Y18.157
G1 Z0.350
G1 E3.20000 F2400.000
;TYPE:Solid infill
;WIDTH:0.488978
G1 F1800.000
G1 X20.310 Y17.712 E0.03792
G1 X20.218 Y17.682 E0.00582
G1 X20.056 Y17.677 E0.00975
G1 X19.881 Y17.734 E0.01110
G1 X19.803 Y17.789 E0.00576
G1 X20.481 Y18.469 E0.05785
G1 X20.368 Y18.568 E0.00903
G1 X20.282 Y18.609 E0.00576
G1 X20.094 Y18.637 E0.01146
G1 X20.059 Y18.632 E0.00212
G1 X19.489 Y18.062 E0.04855
M106 S84.15
;LAYER_CHANGE
;Z:0.45
;HEIGHT:0.1
;BEFORE_LAYER_CHANGE
G92 E0.0
;0.45


G1 E-2.24000 F4200.000
;WIPE_START
G1 F6240.000
G1 X20.059 Y18.632 E-0.51548
G1 X20.094 Y18.637 E-0.02255
G1 X20.282 Y18.609 E-0.12170
G1 X20.368 Y18.568 E-0.06115
G1 X20.481 Y18.469 E-0.09592
G1 X20.376 Y18.364 E-0.09520
;WIPE_END
G1 E-0.04800 F4200.000
G1 Z0.550 F7800.000
;AFTER_LAYER_CHANGE
;0.45
M104 S210 ; set temperature
G1 X26.152 Y20.941
G1 Z0.450
G1 E3.20000 F2400.000
;TYPE:Support material
;WIDTH:0.35
G1 F1869
G1 X28.168 Y20.941 E0.02753
G1 X28.168 Y18.155 E0.03805
G1 X26.281 Y18.155 E0.02578
G1 X26.281 Y15.369 E0.03805
G1 X28.297 Y15.369 E0.02753
G1 E-2.24000 F4200.000
;WIPE_START
G1 F6240.000
G1 X26.870 Y15.369 E-0.91200
;WIPE_END
G1 E-0.04800 F4200.000
G1 Z0.650 F7800.000
G1 X25.657 Y12.266
G1 Z0.450
G1 E3.20000 F2400.000
G1 F1869
G1 X14.579 Y12.266 E0.15132
G1 X14.579 Y9.830 E0.03327
G1 X25.657 Y9.830 E0.15132
G1 X25.657 Y12.266 E0.03327
G1 E-2.24000 F4200.000
;WIPE_START
G1 F6240.000
G1 X25.657 Y10.840 E-0.91200
;WIPE_END
G1 E-0.04800 F4200.000
G1 Z0.650 F7800.000
G1 X23.973 Y12.455
G1 Z0.450
G1 E3.20000 F2400.000
