; generated by PrusaSlicer 2.3.3+win64 on 2022-01-07 at 16:45:44 UTC


;
;

;
;
; 

; external perimeters extrusion width = 0.45mm
; perimeters extrusion width = 0.45mm
; infill extrusion width = 0.45mm
; solid infill extrusion width = 0.45mm
; top infill extrusion width = 0.40mm
; support material extrusion width = 0.35mm
; first layer extrusion width = 0.42mm

M73 P0 R298
M201 X1250 Y1250 Z400 E5000 ; sets maximum accelerations, mm/sec^2
M203 X180 Y180 Z12 E80 ; sets maximum feedrates, mm/sec
M204 P1250 R1250 T1250 ; sets acceleration (P, T) and retract acceleration (R), mm/sec^2
M205 X8.00 Y8.00 Z2.00 E10.00 ; sets the jerk limits, mm/sec
M205 S0 T0 ; sets the minimum extruding and travel feed rate, mm/sec
M107
;TYPE:Custom
G90 ; use absolute coordinates
M83 ; extruder relative mode
M104 S170 ; set extruder temp for bed leveling
M140 S60 ; set bed temp
M109 R170 ; wait for bed leveling temp
M190 S60 ; wait for bed temp
G28 ; home all without mesh bed level
G29 ; mesh bed leveling 
M104 S215 ; set extruder temp
G92 E0.0
G1 Y-2.0 X179 F2400
G1 Z3 F720
M109 S215 ; wait for extruder temp

; intro line
G1 X170 F1000
G1 Z0.2 F720
G1 X110.0 E8.0 F900
G1 X40.0 E10.0 F700
G92 E0.0

M221 S95 ; set flow
G21 ; set units to millimeters
G90 ; use absolute coordinates
M83 ; use relative distances for extrusion
M900 K0.2 ; Filament gcode LA 1.5
; ; Filament gcode LA 1.0
;LAYER_CHANGE
;Z:0.35
;HEIGHT:0.35
;BEFORE_LAYER_CHANGE
G92 E0.0
;0.35


G1 E-3.20000 F4200.000
G1 Z0.200 F7800.000
G1 Z0.350
;AFTER_LAYER_CHANGE
;0.35
G1 Z0.550
G1 X141.655 Y167.770
G1 Z0.350
G1 E3.20000 F2400.000
;TYPE:Perimeter
;WIDTH:0.42
G1 F1800.000
G1 X142.403 Y167.197 E0.04729
G1 X143.273 Y166.836 E0.04729
G1 X144.167 Y166.718 E0.04521
G1 X145.136 Y166.834 E0.04902
G1 X146.012 Y167.197 E0.04757
G1 X146.760 Y167.770 E0.04729
G1 X147.333 Y168.518 E0.04728
G1 X147.678 Y169.350 E0.04521
G1 X147.818 Y170.317 E0.04902
G1 X147.694 Y171.256 E0.04757
G1 X147.333 Y172.127 E0.04729
G1 X146.760 Y172.874 E0.04728
G1 X146.012 Y173.448 E0.04729
G1 X145.142 Y173.809 E0.04729
G1 X144.208 Y173.932 E0.04729
G1 X143.273 Y173.809 E0.04729
G1 X142.403 Y173.448 E0.04729
G1 X141.655 Y172.874 E0.04729
G1 X141.082 Y172.127 E0.04728
G1 X140.737 Y171.295 E0.04521
G1 X140.598 Y170.328 E0.04902
G1 X140.721 Y169.388 E0.04757
G1 X141.082 Y168.518 E0.04729
G1 X141.619 Y167.818 E0.04427
G1 X141.893 Y168.028 F7800.000
G1 F1800.000
G1 X142.577 Y167.498 E0.04344
G1 X143.364 Y167.172 E0.04273
G1 X144.169 Y167.066 E0.04076
G1 X145.048 Y167.171 E0.04446
G1 X145.838 Y167.498 E0.04290
G1 X146.514 Y168.016 E0.04273
G1 X147.032 Y168.692 E0.04273
G1 X147.343 Y169.442 E0.04076
G1 X147.469 Y170.319 E0.04446
G1 X147.358 Y171.166 E0.04291
G1 X147.032 Y171.953 E0.04273
G1 X146.514 Y172.628 E0.04273
G1 X145.838 Y173.147 E0.04273
G1 X145.052 Y173.473 E0.04273
G1 X144.208 Y173.584 E0.04273
G1 X143.364 Y173.473 E0.04273
G1 X142.577 Y173.147 E0.04273
G1 X141.901 Y172.628 E0.04273
G1 X141.383 Y171.953 E0.04273
G1 X141.072 Y171.203 E0.04076
G1 X140.946 Y170.326 E0.04446
G1 X141.057 Y169.478 E0.04291
G1 X141.383 Y168.692 E0.04273
G1 X141.856 Y168.075 E0.03898
G1 X142.130 Y168.285 F7800.000
;TYPE:External perimeter
G1 F1800.000
G1 X142.751 Y167.799 E0.03959
G1 X143.454 Y167.508 E0.03817
G1 X144.171 Y167.414 E0.03631
G1 X144.960 Y167.508 E0.03990
G1 X145.664 Y167.799 E0.03824
G1 X146.268 Y168.262 E0.03817
G1 X146.731 Y168.866 E0.03817
G1 X147.008 Y169.534 E0.03631
G1 X147.121 Y170.321 E0.03990
G1 X147.022 Y171.076 E0.03824
G1 X146.731 Y171.779 E0.03817
G1 X146.268 Y172.383 E0.03817
G1 X145.664 Y172.846 E0.03817
G1 X144.962 Y173.137 E0.03817
G1 X144.208 Y173.236 E0.03817
G1 X143.454 Y173.137 E0.03817
G1 X142.751 Y172.846 E0.03817
G1 X142.147 Y172.383 E0.03817
G1 X141.684 Y171.779 E0.03817
G1 X141.408 Y171.111 E0.03631
G1 X141.294 Y170.324 E0.03990
G1 X141.393 Y169.568 E0.03824
G1 X141.684 Y168.866 E0.03817
G1 X142.093 Y168.333 E0.03369
G1 X142.023 Y167.900 F7800.000
G1 E-2.24000 F4200.000
;WIPE_START
G1 F6240.000
G1 X142.751 Y167.799 E-0.54164
G1 X143.286 Y167.577 E-0.37036
;WIPE_END
G1 E-0.04800 F4200.000
G1 Z0.550 F7800.000
G1 X47.818 Y170.317
G1 Z0.350
G1 E3.20000 F2400.000
;TYPE:Perimeter
G1 F1800.000
G1 X47.694 Y171.256 E0.04757
G1 X47.333 Y172.127 E0.04729
G1 X46.760 Y172.874 E0.04728
G1 X46.012 Y173.448 E0.04729
G1 X45.142 Y173.809 E0.04729
G1 X44.208 Y173.932 E0.04729
G1 X43.273 Y173.809 E0.04729
G1 X42.403 Y173.448 E0.04729
G1 X41.655 Y172.874 E0.04729
G1 X41.082 Y172.127 E0.04728
G1 X40.737 Y171.295 E0.04521
G1 X40.598 Y170.328 E0.04902
G1 X40.721 Y169.388 E0.04757
G1 X41.082 Y168.518 E0.04729
G1 X41.655 Y167.770 E0.04728
G1 X42.403 Y167.197 E0.04729
G1 X43.273 Y166.836 E0.04729
G1 X44.167 Y166.718 E0.04521
G1 X45.136 Y166.834 E0.04902
G1 X46.012 Y167.197 E0.04757
G1 X46.760 Y167.770 E0.04729
G1 X47.333 Y168.518 E0.04728
G1 X47.678 Y169.350 E0.04521
G1 X47.809 Y170.257 E0.04601
G1 X47.468 Y170.307 F7800.000
G1 F1800.000
G1 X47.358 Y171.166 E0.04350
G1 X47.032 Y171.953 E0.04273
G1 X46.514 Y172.628 E0.04273
G1 X45.838 Y173.147 E0.04273
G1 X45.052 Y173.473 E0.04273
G1 X44.208 Y173.584 E0.04273
G1 X43.364 Y173.473 E0.04273
G1 X42.577 Y173.147 E0.04273
G1 X41.901 Y172.628 E0.04273
G1 X41.383 Y171.953 E0.04273
G1 X41.072 Y171.203 E0.04076
G1 X40.946 Y170.326 E0.04446
G1 X41.057 Y169.478 E0.04291
G1 X41.383 Y168.692 E0.04273
G1 X41.901 Y168.016 E0.04273
G1 X42.577 Y167.498 E0.04273
G1 X43.364 Y167.172 E0.04273
G1 X44.169 Y167.066 E0.04076
G1 X45.048 Y167.171 E0.04446
G1 X45.838 Y167.498 E0.04290
G1 X46.514 Y168.016 E0.04273
G1 X47.032 Y168.692 E0.04273
G1 X47.343 Y169.442 E0.04076
G1 X47.459 Y170.247 E0.04083
G1 X47.118 Y170.296 F7800.000
;TYPE:External perimeter
G1 F1800.000
G1 X47.022 Y171.076 E0.03944
G1 X46.731 Y171.779 E0.03817
G1 X46.268 Y172.383 E0.03817
G1 X45.664 Y172.846 E0.03817
G1 X44.962 Y173.137 E0.03817
G1 X44.208 Y173.236 E0.03817
G1 X43.454 Y173.137 E0.03817
G1 X42.751 Y172.846 E0.03817
G1 X42.147 Y172.383 E0.03817
G1 X41.684 Y171.779 E0.03817
G1 X41.408 Y171.111 E0.03631
G1 X41.294 Y170.324 E0.03990
G1 X41.393 Y169.568 E0.03824
G1 X41.684 Y168.866 E0.03817
G1 X42.147 Y168.262 E0.03817
G1 X42.751 Y167.799 E0.03817
G1 X43.454 Y167.508 E0.03817
G1 X44.171 Y167.414 E0.03631
G1 X44.960 Y167.508 E0.03990
G1 X45.664 Y167.799 E0.03824
G1 X46.268 Y168.262 E0.03817
G1 X46.731 Y168.866 E0.03817
G1 X47.008 Y169.534 E0.03631
G1 X47.109 Y170.237 E0.03565
G1 X47.465 Y170.494 F7800.000
G1 E-2.24000 F4200.000
;WIPE_START
G1 F6240.000
G1 X47.022 Y171.076 E-0.53959
G1 X46.799 Y171.614 E-0.37241
;WIPE_END
G1 E-0.04800 F4200.000
G1 Z0.550 F7800.000
G1 X44.208 Y13.932
G1 Z0.350
G1 E3.20000 F2400.000
;TYPE:Perimeter
G1 F1800.000
G1 X43.273 Y13.809 E0.04729
G1 X42.403 Y13.448 E0.04729
G1 X41.655 Y12.874 E0.04729
G1 X41.082 Y12.127 E0.04729
G1 X40.737 Y11.295 E0.04521
G1 X40.598 Y10.328 E0.04902
G1 X40.721 Y9.388 E0.04757
G1 X41.082 Y8.518 E0.04729
G1 X41.655 Y7.770 E0.04729
G1 X42.403 Y7.197 E0.04729
G1 X43.273 Y6.836 E0.04729
G1 X44.167 Y6.718 E0.04521
G1 X45.136 Y6.834 E0.04902
G1 X46.012 Y7.197 E0.04757
G1 X46.760 Y7.770 E0.04729
G1 X47.333 Y8.518 E0.04729
G1 X47.678 Y9.350 E0.04521
G1 X47.818 Y10.317 E0.04902
G1 X47.694 Y11.256 E0.04757
G1 X47.333 Y12.127 E0.04729
G1 X46.760 Y12.874 E0.04729
G1 X46.012 Y13.448 E0.04729
G1 X45.142 Y13.809 E0.04729
G1 X44.267 Y13.924 E0.04427
G1 X44.222 Y13.582 F7800.000
G1 F1800.000
G1 X43.363 Y13.473 E0.04344
G1 X42.577 Y13.147 E0.04273
G1 X41.901 Y12.628 E0.04273
G1 X41.383 Y11.953 E0.04273
G1 X41.072 Y11.203 E0.04076
G1 X40.946 Y10.326 E0.04446
G1 X41.057 Y9.478 E0.04291
G1 X41.383 Y8.692 E0.04273
G1 X41.901 Y8.016 E0.04273
G1 X42.577 Y7.498 E0.04273
G1 X43.363 Y7.172 E0.04273
G1 X44.169 Y7.066 E0.04076
G1 X45.048 Y7.171 E0.04446
G1 X45.838 Y7.498 E0.04291
G1 X46.514 Y8.016 E0.04273
G1 X47.032 Y8.692 E0.04273
G1 X47.343 Y9.442 E0.04076
G1 X47.469 Y10.319 E0.04446
G1 X47.358 Y11.166 E0.04291
G1 X47.032 Y11.953 E0.04273
G1 X46.514 Y12.628 E0.04273
G1 X45.838 Y13.147 E0.04273
G1 X45.052 Y13.473 E0.04273
G1 X44.282 Y13.574 E0.03898
G1 X44.237 Y13.232 F7800.000
;TYPE:External perimeter
G1 F1800.000
G1 X43.454 Y13.137 E0.03959
G1 X42.751 Y12.846 E0.03817
G1 X42.147 Y12.383 E0.03817
G1 X41.684 Y11.779 E0.03817
G1 X41.408 Y11.111 E0.03631
G1 X41.294 Y10.324 E0.03990
G1 X41.393 Y9.568 E0.03824
G1 X41.684 Y8.866 E0.03817
G1 X42.147 Y8.262 E0.03817
G1 X42.751 Y7.799 E0.03817
G1 X43.454 Y7.508 E0.03817
G1 X44.171 Y7.414 E0.03631
G1 X44.960 Y7.508 E0.03990
G1 X45.664 Y7.799 E0.03824
G1 X46.268 Y8.262 E0.03817
G1 X46.731 Y8.866 E0.03817
G1 X47.008 Y9.534 E0.03631
G1 X47.121 Y10.321 E0.03990
G1 X47.022 Y11.076 E0.03824
G1 X46.731 Y11.779 E0.03817
G1 X46.268 Y12.383 E0.03817
G1 X45.664 Y12.846 E0.03817
G1 X44.962 Y13.137 E0.03817
G1 X44.296 Y13.224 E0.03369
G1 X44.039 Y13.580 F7800.000
G1 E-2.24000 F4200.000
;WIPE_START
G1 F6240.000
G1 X43.454 Y13.137 E-0.54162
G1 X42.918 Y12.915 E-0.37038
;WIPE_END
G1 E-0.04800 F4200.000
G1 Z0.550 F7800.000
G1 X140.598 Y10.328
G1 Z0.350
G1 E3.20000 F2400.000
;TYPE:Perimeter
G1 F1800.000
G1 X140.721 Y9.388 E0.04757
G1 X141.082 Y8.518 E0.04729
G1 X141.655 Y7.770 E0.04729
G1 X142.403 Y7.197 E0.04729
G1 X143.273 Y6.836 E0.04729
G1 X144.167 Y6.718 E0.04521
G1 X145.136 Y6.834 E0.04902
G1 X146.012 Y7.197 E0.04757
G1 X146.760 Y7.770 E0.04729
G1 X147.333 Y8.518 E0.04729
G1 X147.678 Y9.350 E0.04521
G1 X147.818 Y10.317 E0.04902
G1 X147.694 Y11.256 E0.04757
G1 X147.333 Y12.127 E0.04729
G1 X146.760 Y12.874 E0.04729
G1 X146.012 Y13.448 E0.04729
G1 X145.142 Y13.809 E0.04729
G1 X144.208 Y13.932 E0.04729
G1 X143.273 Y13.809 E0.04729
G1 X142.403 Y13.448 E0.04729
G1 X141.655 Y12.874 E0.04729
G1 X141.082 Y12.127 E0.04729
G1 X140.737 Y11.295 E0.04521
G1 X140.606 Y10.387 E0.04601
G1 X140.948 Y10.338 F7800.000
G1 F1800.000
G1 X141.057 Y9.478 E0.04350
G1 X141.383 Y8.692 E0.04273
G1 X141.901 Y8.016 E0.04273
G1 X142.577 Y7.498 E0.04273
G1 X143.363 Y7.172 E0.04273
G1 X144.169 Y7.066 E0.04076
G1 X145.048 Y7.171 E0.04446
G1 X145.838 Y7.498 E0.04291
G1 X146.514 Y8.016 E0.04273
G1 X147.032 Y8.692 E0.04273
G1 X147.343 Y9.442 E0.04076
G1 X147.469 Y10.319 E0.04446
G1 X147.358 Y11.166 E0.04291
G1 X147.032 Y11.953 E0.04273
G1 X146.514 Y12.628 E0.04273
G1 X145.838 Y13.147 E0.04273
G1 X145.052 Y13.473 E0.04273
G1 X144.208 Y13.584 E0.04273
G1 X143.363 Y13.473 E0.04273
G1 X142.577 Y13.147 E0.04273
G1 X141.901 Y12.628 E0.04273
G1 X141.383 Y11.953 E0.04273
G1 X141.072 Y11.203 E0.04076
G1 X140.956 Y10.397 E0.04083
G1 X141.297 Y10.348 F7800.000
;TYPE:External perimeter
G1 F1800.000
G1 X141.393 Y9.568 E0.03944
G1 X141.684 Y8.866 E0.03817
G1 X142.147 Y8.262 E0.03817
G1 X142.751 Y7.799 E0.03817
G1 X143.454 Y7.508 E0.03817
G1 X144.171 Y7.414 E0.03631
G1 X144.960 Y7.508 E0.03990
G1 X145.664 Y7.799 E0.03824
G1 X146.268 Y8.262 E0.03817
G1 X146.731 Y8.866 E0.03817
G1 X147.008 Y9.534 E0.03631
G1 X147.121 Y10.321 E0.03990
G1 X147.022 Y11.076 E0.03824
G1 X146.731 Y11.779 E0.03817
G1 X146.268 Y12.383 E0.03817
G1 X145.664 Y12.846 E0.03817
G1 X144.962 Y13.137 E0.03817
G1 X144.208 Y13.236 E0.03817
G1 X143.454 Y13.137 E0.03817
G1 X142.751 Y12.846 E0.03817
G1 X142.147 Y12.383 E0.03817
G1 X141.684 Y11.779 E0.03817
G1 X141.408 Y11.111 E0.03631
G1 X141.306 Y10.408 E0.03565
G1 X140.950 Y10.150 F7800.000
G1 E-2.24000 F4200.000
;WIPE_START
G1 F6240.000
G1 X141.393 Y9.568 E-0.53959
G1 X141.616 Y9.030 E-0.37241
;WIPE_END
G1 E-0.04800 F4200.000
G1 Z0.550 F7800.000
G1 X148.108 Y14.223
G1 Z0.350
G1 E3.20000 F2400.000
;TYPE:Perimeter
G1 F1800.000
G1 X142.136 Y14.223 E0.29973
G1 X141.144 Y14.353 E0.05019
G1 X140.153 Y14.764 E0.05384
G1 X139.302 Y15.417 E0.05384
G1 X138.649 Y16.268 E0.05384
G1 X138.238 Y17.259 E0.05384
G1 X138.108 Y18.250 E0.05019
G1 X138.108 Y162.394 E7.23401
G1 X138.238 Y163.386 E0.05019
G1 X138.649 Y164.377 E0.05384
G1 X139.302 Y165.228 E0.05384
G1 X140.153 Y165.881 E0.05384
G1 X141.144 Y166.292 E0.05384
G1 X142.136 Y166.422 E0.05019
G1 X148.108 Y166.422 E0.29973
G1 X148.108 Y174.223 E0.39147
G1 X40.307 Y174.223 E5.41006
G1 X40.307 Y166.422 E0.39147
G1 X46.280 Y166.422 E0.29973
G1 X47.271 Y166.292 E0.05019
G1 X48.262 Y165.881 E0.05384
G1 X49.113 Y165.228 E0.05384
G1 X49.766 Y164.377 E0.05384
G1 X50.177 Y163.386 E0.05384
G1 X50.307 Y162.394 E0.05019
G1 X50.307 Y18.250 E7.23401
M73 P0 R297
G1 X50.177 Y17.259 E0.05019
G1 X49.766 Y16.268 E0.05384
G1 X49.113 Y15.417 E0.05384
G1 X48.262 Y14.764 E0.05384
G1 X47.271 Y14.353 E0.05384
G1 X46.280 Y14.223 E0.05019
G1 X40.307 Y14.223 E0.29973
G1 X40.307 Y6.422 E0.39147
G1 X148.108 Y6.422 E5.41006
G1 X148.108 Y14.163 E0.38846
G1 X148.453 Y14.567 F7800.000
G1 F1800.000
G1 X142.158 Y14.567 E0.31590
G1 X141.234 Y14.689 E0.04677
G1 X140.327 Y15.065 E0.04928
G1 X139.548 Y15.663 E0.04928
G1 X138.950 Y16.442 E0.04928
G1 X138.574 Y17.349 E0.04928
G1 X138.453 Y18.273 E0.04677
G1 X138.453 Y162.372 E7.23174
G1 X138.574 Y163.296 E0.04677
G1 X138.950 Y164.203 E0.04928
G1 X139.548 Y164.982 E0.04928
G1 X140.327 Y165.580 E0.04928
G1 X141.234 Y165.956 E0.04928
G1 X142.158 Y166.077 E0.04677
G1 X148.453 Y166.077 E0.31590
G1 X148.453 Y174.567 E0.42609
G1 X39.962 Y174.567 E5.44468
G1 X39.962 Y166.077 E0.42609
G1 X46.257 Y166.077 E0.31590
G1 X47.181 Y165.956 E0.04677
G1 X48.088 Y165.580 E0.04928
G1 X48.867 Y164.982 E0.04928
G1 X49.465 Y164.203 E0.04928
G1 X49.841 Y163.296 E0.04928
G1 X49.962 Y162.372 E0.04677
G1 X49.962 Y18.273 E7.23174
G1 X49.841 Y17.349 E0.04677
G1 X49.465 Y16.442 E0.04928
G1 X48.867 Y15.663 E0.04928
G1 X48.088 Y15.065 E0.04928
G1 X47.181 Y14.689 E0.04928
G1 X46.257 Y14.567 E0.04677
G1 X39.962 Y14.567 E0.31590
G1 X39.962 Y6.077 E0.42609
G1 X148.453 Y6.077 E5.44468
G1 X148.453 Y14.507 E0.42308
G1 X148.798 Y14.912 F7800.000
;TYPE:External perimeter
G1 F1800.000
G1 X142.181 Y14.912 E0.33207
G1 X141.324 Y15.025 E0.04336
G1 X140.501 Y15.366 E0.04472
G1 X139.794 Y15.909 E0.04472
G1 X139.251 Y16.616 E0.04472
G1 X138.910 Y17.439 E0.04472
G1 X138.798 Y18.295 E0.04336
G1 X138.798 Y162.349 E7.22947
G1 X138.910 Y163.206 E0.04336
G1 X139.251 Y164.029 E0.04472
G1 X139.794 Y164.736 E0.04472
G1 X140.501 Y165.279 E0.04472
G1 X141.324 Y165.620 E0.04472
G1 X142.181 Y165.732 E0.04336
G1 X148.798 Y165.732 E0.33207
G1 X148.798 Y174.912 E0.46071
G1 X39.618 Y174.912 E5.47930
G1 X39.618 Y165.732 E0.46071
G1 X46.234 Y165.732 E0.33207
G1 X47.091 Y165.620 E0.04336
G1 X47.914 Y165.279 E0.04472
G1 X48.621 Y164.736 E0.04472
G1 X49.164 Y164.029 E0.04472
G1 X49.505 Y163.206 E0.04472
G1 X49.618 Y162.349 E0.04336
G1 X49.618 Y18.295 E7.22947
G1 X49.505 Y17.439 E0.04336
G1 X49.164 Y16.616 E0.04472
G1 X48.621 Y15.909 E0.04472
G1 X47.914 Y15.366 E0.04472
G1 X47.091 Y15.025 E0.04472
G1 X46.234 Y14.912 E0.04336
G1 X39.618 Y14.912 E0.33207
G1 X39.618 Y5.732 E0.46071
G1 X148.798 Y5.732 E5.47930
G1 X148.798 Y14.852 E0.45770
G1 X148.398 Y14.901 F7800.000
G1 E-2.24000 F4200.000
;WIPE_START
G1 F6240.000
G1 X147.371 Y14.865 E-0.91200
;WIPE_END
G1 E-0.04800 F4200.000
G1 Z0.550 F7800.000
G1 X146.055 Y13.842
G1 Z0.350
G1 E3.20000 F2400.000
;TYPE:Gap fill
;WIDTH:0.422811
G1 F1800.000
G1 X145.913 Y13.870 E0.00734
;WIDTH:0.377594
G1 X145.771 Y13.899 E0.00639
;WIDTH:0.332377
G1 X145.628 Y13.927 E0.00543
;WIDTH:0.28716
G1 X145.486 Y13.955 E0.00448
;WIDTH:0.241943
G1 X145.344 Y13.984 E0.00352
;WIDTH:0.196727
G1 X145.201 Y14.012 E0.00257
;WIDTH:0.151509
G1 X145.192 Y14.013 E0.00011
;WIDTH:0.148917
G1 X144.988 Y14.027 E0.00219
G1 E-2.24000 F4200.000
;WIPE_START
G1 F6240.000
G1 X145.192 Y14.013 E-0.13053
;WIPE_END
G1 E-0.82947 F4200.000
G1 Z0.550 F7800.000
G1 X143.427 Y14.027
G1 Z0.350
G1 E3.20000 F2400.000
;WIDTH:0.148918
G1 F1800.000
G1 X143.224 Y14.013 E0.00219
;WIDTH:0.15151
G1 X142.999 Y13.969 E0.00255
;WIDTH:0.279783
G1 X142.891 Y13.948 E0.00326
;WIDTH:0.279781
G1 X142.860 Y13.967 E0.00111
;WIDTH:0.2409
G1 X142.828 Y13.987 E0.00090
;WIDTH:0.202019
G1 X142.796 Y14.006 E0.00069
;WIDTH:0.163137
G1 X142.484 Y14.027 E0.00401
G1 X142.587 Y13.755 F7800.000
;WIDTH:0.161157
G1 F1800.000
G1 X142.461 Y13.683 E0.00181
G1 X142.587 Y13.755 F7800.000
;WIDTH:0.196804
G1 F1800.000
G1 X142.712 Y13.828 E0.00257
;WIDTH:0.23245
