; generated by PrusaSlicer 2.3.3+win64 on 2022-01-07 at 07:58:06 UTC


;
;

;
;
; 

; external perimeters extrusion width = 0.45mm
; perimeters extrusion width = 0.45mm
; infill extrusion width = 0.45mm
; solid infill extrusion width = 0.45mm
; top infill extrusion width = 0.40mm
; support material extrusion width = 0.35mm
; first layer extrusion width = 0.42mm

M73 P0 R255
M201 X1250 Y1250 Z400 E5000 ; sets maximum accelerations, mm/sec^2
M203 X180 Y180 Z12 E80 ; sets maximum feedrates, mm/sec
M204 P1250 R1250 T1250 ; sets acceleration (P, T) and retract acceleration (R), mm/sec^2
M205 X8.00 Y8.00 Z2.00 E10.00 ; sets the jerk limits, mm/sec
M205 S0 T0 ; sets the minimum extruding and travel feed rate, mm/sec
M107
;TYPE:Custom
G90 ; use absolute coordinates
M83 ; extruder relative mode
M104 S170 ; set extruder temp for bed leveling
M140 S60 ; set bed temp
M109 R170 ; wait for bed leveling temp
M190 S60 ; wait for bed temp
G28 ; home all without mesh bed level
G29 ; mesh bed leveling 
M104 S215 ; set extruder temp
G92 E0.0
G1 Y-2.0 X179 F2400
G1 Z3 F720
M109 S215 ; wait for extruder temp

; intro line
G1 X170 F1000
G1 Z0.2 F720
G1 X110.0 E8.0 F900
G1 X40.0 E10.0 F700
G92 E0.0

M221 S95 ; set flow
G21 ; set units to millimeters
G90 ; use absolute coordinates
M83 ; use relative distances for extrusion
M900 K0.2 ; Filament gcode LA 1.5
; ; Filament gcode LA 1.0
;LAYER_CHANGE
;Z:0.35
;HEIGHT:0.35
;BEFORE_LAYER_CHANGE
G92 E0.0
;0.35


G1 E-3.20000 F4200.000
G1 Z0.200 F7800.000
G1 Z0.350
;AFTER_LAYER_CHANGE
;0.35
G1 Z0.550
G1 X126.283 Y75.887
G1 Z0.350
G1 E3.20000 F2400.000
;TYPE:Perimeter
;WIDTH:0.42
G1 F1800.000
G1 X169.083 Y75.887 E2.14798
G1 X169.083 Y111.687 E1.79668
G1 X126.283 Y111.687 E2.14798
G1 X126.283 Y75.947 E1.79367
G1 X125.938 Y75.542 F7800.000
G1 F1800.000
G1 X169.428 Y75.542 E2.18260
G1 X169.428 Y112.032 E1.83130
G1 X125.938 Y112.032 E2.18260
G1 X125.938 Y75.602 E1.82828
G1 X125.593 Y75.197 F7800.000
;TYPE:External perimeter
G1 F1800.000
G1 X169.773 Y75.197 E2.21721
G1 X169.773 Y112.377 E1.86591
G1 X125.593 Y112.377 E2.21721
G1 X125.593 Y75.257 E1.86290
G1 X125.982 Y75.290 F7800.000
G1 E-2.24000 F4200.000
;WIPE_START
G1 F6240.000
G1 X127.019 Y75.255 E-0.91200
;WIPE_END
G1 E-0.04800 F4200.000
G1 Z0.550 F7800.000
G1 X168.281 Y75.990
G1 Z0.350
G1 E3.20000 F2400.000
;TYPE:Solid infill
;WIDTH:0.420957
G1 F1800.000
G1 X168.825 Y76.535 E0.03872
G1 X168.825 Y77.024 E0.02461
G1 X167.947 Y76.146 E0.06248
G1 X167.458 Y76.146 E0.02461
G1 X168.825 Y77.513 E0.09729
G1 X168.825 Y78.002 E0.02461
G1 X166.969 Y76.146 E0.13210
G1 X166.479 Y76.146 E0.02461
G1 X168.825 Y78.491 E0.16691
G1 X168.825 Y78.980 E0.02461
G1 X165.990 Y76.146 E0.20172
G1 X165.501 Y76.146 E0.02461
G1 X168.825 Y79.469 E0.23653
G1 X168.825 Y79.958 E0.02461
G1 X165.012 Y76.146 E0.27134
G1 X164.523 Y76.146 E0.02461
G1 X168.825 Y80.447 E0.30615
G1 X168.825 Y80.936 E0.02461
G1 X164.034 Y76.146 E0.34096
G1 X163.545 Y76.146 E0.02461
G1 X168.825 Y81.426 E0.37577
G1 X168.825 Y81.915 E0.02461
G1 X163.056 Y76.146 E0.41058
G1 X162.567 Y76.146 E0.02461
G1 X168.825 Y82.404 E0.44539
G1 X168.825 Y82.893 E0.02461
G1 X162.078 Y76.146 E0.48020
G1 X161.588 Y76.146 E0.02461
G1 X168.825 Y83.382 E0.51501
G1 X168.825 Y83.871 E0.02461
G1 X161.099 Y76.146 E0.54982
G1 X160.610 Y76.146 E0.02461
G1 X168.825 Y84.360 E0.58463
G1 X168.825 Y84.849 E0.02461
G1 X160.121 Y76.146 E0.61943
G1 X159.632 Y76.146 E0.02461
G1 X168.825 Y85.338 E0.65424
G1 X168.825 Y85.827 E0.02461
G1 X159.143 Y76.146 E0.68905
G1 X158.654 Y76.146 E0.02461
G1 X168.825 Y86.317 E0.72386
G1 X168.825 Y86.806 E0.02461
G1 X158.165 Y76.146 E0.75867
G1 X157.676 Y76.146 E0.02461
G1 X168.825 Y87.295 E0.79348
G1 X168.825 Y87.784 E0.02461
G1 X157.187 Y76.146 E0.82829
G1 X156.697 Y76.146 E0.02461
G1 X168.825 Y88.273 E0.86310
M73 P0 R254
G1 X168.825 Y88.762 E0.02461
G1 X156.208 Y76.146 E0.89791
G1 X155.719 Y76.146 E0.02461
G1 X168.825 Y89.251 E0.93272
G1 X168.825 Y89.740 E0.02461
G1 X155.230 Y76.146 E0.96753
G1 X154.741 Y76.146 E0.02461
G1 X168.825 Y90.229 E1.00234
G1 X168.825 Y90.718 E0.02461
G1 X154.252 Y76.146 E1.03715
G1 X153.763 Y76.146 E0.02461
G1 X168.825 Y91.208 E1.07196
G1 X168.825 Y91.697 E0.02461
G1 X153.274 Y76.146 E1.10677
G1 X152.785 Y76.146 E0.02461
G1 X168.825 Y92.186 E1.14158
G1 X168.825 Y92.675 E0.02461
G1 X152.296 Y76.146 E1.17639
G1 X151.806 Y76.146 E0.02461
G1 X168.825 Y93.164 E1.21120
G1 X168.825 Y93.653 E0.02461
G1 X151.317 Y76.146 E1.24601
G1 X150.828 Y76.146 E0.02461
G1 X168.825 Y94.142 E1.28081
G1 X168.825 Y94.631 E0.02461
G1 X150.339 Y76.146 E1.31562
G1 X149.850 Y76.146 E0.02461
G1 X168.825 Y95.120 E1.35043
G1 X168.825 Y95.609 E0.02461
G1 X149.361 Y76.146 E1.38524
G1 X148.872 Y76.146 E0.02461
G1 X168.825 Y96.099 E1.42005
G1 X168.825 Y96.588 E0.02461
G1 X148.383 Y76.146 E1.45486
G1 X147.894 Y76.146 E0.02461
G1 X168.825 Y97.077 E1.48967
G1 X168.825 Y97.566 E0.02461
G1 X147.405 Y76.146 E1.52448
G1 X146.915 Y76.146 E0.02461
G1 X168.825 Y98.055 E1.55929
G1 X168.825 Y98.544 E0.02461
G1 X146.426 Y76.146 E1.59410
G1 X145.937 Y76.146 E0.02461
G1 X168.825 Y99.033 E1.62891
G1 X168.825 Y99.522 E0.02461
G1 X145.448 Y76.146 E1.66372
G1 X144.959 Y76.146 E0.02461
G1 X168.825 Y100.011 E1.69853
G1 X168.825 Y100.500 E0.02461
G1 X144.470 Y76.146 E1.73334
G1 X143.981 Y76.146 E0.02461
G1 X168.825 Y100.990 E1.76815
G1 X168.825 Y101.479 E0.02461
G1 X143.492 Y76.146 E1.80296
G1 X143.003 Y76.146 E0.02461
G1 X168.825 Y101.968 E1.83777
G1 X168.825 Y102.457 E0.02461
G1 X142.514 Y76.146 E1.87258
G1 X142.024 Y76.146 E0.02461
G1 X168.825 Y102.946 E1.90739
G1 X168.825 Y103.435 E0.02461
G1 X141.535 Y76.146 E1.94219
G1 X141.046 Y76.146 E0.02461
G1 X168.825 Y103.924 E1.97700
G1 X168.825 Y104.413 E0.02461
G1 X140.557 Y76.146 E2.01181
G1 X140.068 Y76.146 E0.02461
G1 X168.825 Y104.902 E2.04662
G1 X168.825 Y105.391 E0.02461
G1 X139.579 Y76.146 E2.08143
G1 X139.090 Y76.146 E0.02461
G1 X168.825 Y105.881 E2.11624
G1 X168.825 Y106.370 E0.02461
G1 X138.601 Y76.146 E2.15105
G1 X138.112 Y76.146 E0.02461
G1 X168.825 Y106.859 E2.18586
G1 X168.825 Y107.348 E0.02461
G1 X137.623 Y76.146 E2.22067
G1 X137.133 Y76.146 E0.02461
G1 X168.825 Y107.837 E2.25548
G1 X168.825 Y108.326 E0.02461
G1 X136.644 Y76.146 E2.29029
G1 X136.155 Y76.146 E0.02461
G1 X168.825 Y108.815 E2.32510
G1 X168.825 Y109.304 E0.02461
G1 X135.666 Y76.146 E2.35991
G1 X135.177 Y76.146 E0.02461
G1 X168.825 Y109.793 E2.39472
G1 X168.825 Y110.282 E0.02461
G1 X134.688 Y76.146 E2.42953
G1 X134.199 Y76.146 E0.02461
G1 X168.825 Y110.772 E2.46434
G1 X168.825 Y111.261 E0.02461
G1 X133.710 Y76.146 E2.49915
G1 X133.221 Y76.146 E0.02461
G1 X168.504 Y111.429 E2.51112
G1 X168.015 Y111.429 E0.02461
G1 X132.732 Y76.146 E2.51112
G1 X132.242 Y76.146 E0.02461
G1 X167.526 Y111.429 E2.51112
M73 P0 R253
G1 X167.036 Y111.429 E0.02461
G1 X131.753 Y76.146 E2.51112
G1 X131.264 Y76.146 E0.02461
G1 X166.547 Y111.429 E2.51112
G1 X166.058 Y111.429 E0.02461
G1 X130.775 Y76.146 E2.51112
G1 X130.286 Y76.146 E0.02461
G1 X165.569 Y111.429 E2.51112
G1 X165.080 Y111.429 E0.02461
G1 X129.797 Y76.146 E2.51112
G1 X129.308 Y76.146 E0.02461
G1 X164.591 Y111.429 E2.51112
G1 X164.102 Y111.429 E0.02461
G1 X128.819 Y76.146 E2.51112
G1 X128.330 Y76.146 E0.02461
G1 X163.613 Y111.429 E2.51112
G1 X163.124 Y111.429 E0.02461
G1 X127.841 Y76.146 E2.51112
G1 X127.351 Y76.146 E0.02461
G1 X162.635 Y111.429 E2.51112
G1 X162.145 Y111.429 E0.02461
G1 X126.862 Y76.146 E2.51112
G1 X126.542 Y76.146 E0.01614
G1 X126.542 Y76.314 E0.00847
G1 X161.656 Y111.429 E2.49914
G1 X161.167 Y111.429 E0.02461
G1 X126.542 Y76.803 E2.46433
G1 X126.542 Y77.292 E0.02461
G1 X160.678 Y111.429 E2.42952
G1 X160.189 Y111.429 E0.02461
G1 X126.542 Y77.781 E2.39471
G1 X126.542 Y78.270 E0.02461
G1 X159.700 Y111.429 E2.35990
G1 X159.211 Y111.429 E0.02461
G1 X126.542 Y78.759 E2.32509
G1 X126.542 Y79.249 E0.02461
G1 X158.722 Y111.429 E2.29028
G1 X158.233 Y111.429 E0.02461
G1 X126.542 Y79.738 E2.25547
G1 X126.542 Y80.227 E0.02461
G1 X157.744 Y111.429 E2.22066
G1 X157.254 Y111.429 E0.02461
G1 X126.542 Y80.716 E2.18585
G1 X126.542 Y81.205 E0.02461
G1 X156.765 Y111.429 E2.15104
G1 X156.276 Y111.429 E0.02461
G1 X126.542 Y81.694 E2.11623
G1 X126.542 Y82.183 E0.02461
G1 X155.787 Y111.429 E2.08142
G1 X155.298 Y111.429 E0.02461
G1 X126.542 Y82.672 E2.04662
G1 X126.542 Y83.161 E0.02461
G1 X154.809 Y111.429 E2.01181
G1 X154.320 Y111.429 E0.02461
G1 X126.542 Y83.650 E1.97700
G1 X126.542 Y84.140 E0.02461
G1 X153.831 Y111.429 E1.94219
G1 X153.342 Y111.429 E0.02461
G1 X126.542 Y84.629 E1.90738
G1 X126.542 Y85.118 E0.02461
G1 X152.853 Y111.429 E1.87257
G1 X152.363 Y111.429 E0.02461
G1 X126.542 Y85.607 E1.83776
G1 X126.542 Y86.096 E0.02461
G1 X151.874 Y111.429 E1.80295
G1 X151.385 Y111.429 E0.02461
G1 X126.542 Y86.585 E1.76814
G1 X126.542 Y87.074 E0.02461
G1 X150.896 Y111.429 E1.73333
M73 P1 R253
G1 X150.407 Y111.429 E0.02461
G1 X126.542 Y87.563 E1.69852
G1 X126.542 Y88.052 E0.02461
G1 X149.918 Y111.429 E1.66371
G1 X149.429 Y111.429 E0.02461
G1 X126.542 Y88.541 E1.62890
G1 X126.542 Y89.031 E0.02461
G1 X148.940 Y111.429 E1.59409
G1 X148.451 Y111.429 E0.02461
G1 X126.542 Y89.520 E1.55928
G1 X126.542 Y90.009 E0.02461
G1 X147.962 Y111.429 E1.52447
G1 X147.472 Y111.429 E0.02461
G1 X126.542 Y90.498 E1.48966
G1 X126.542 Y90.987 E0.02461
G1 X146.983 Y111.429 E1.45485
M73 P1 R252
G1 X146.494 Y111.429 E0.02461
G1 X126.542 Y91.476 E1.42004
G1 X126.542 Y91.965 E0.02461
G1 X146.005 Y111.429 E1.38523
G1 X145.516 Y111.429 E0.02461
G1 X126.542 Y92.454 E1.35043
G1 X126.542 Y92.943 E0.02461
G1 X145.027 Y111.429 E1.31562
G1 X144.538 Y111.429 E0.02461
G1 X126.542 Y93.432 E1.28081
G1 X126.542 Y93.922 E0.02461
G1 X144.049 Y111.429 E1.24600
G1 X143.560 Y111.429 E0.02461
G1 X126.542 Y94.411 E1.21119
G1 X126.542 Y94.900 E0.02461
G1 X143.071 Y111.429 E1.17638
G1 X142.581 Y111.429 E0.02461
G1 X126.542 Y95.389 E1.14157
G1 X126.542 Y95.878 E0.02461
G1 X142.092 Y111.429 E1.10676
G1 X141.603 Y111.429 E0.02461
G1 X126.542 Y96.367 E1.07195
G1 X126.542 Y96.856 E0.02461
G1 X141.114 Y111.429 E1.03714
G1 X140.625 Y111.429 E0.02461
G1 X126.542 Y97.345 E1.00233
G1 X126.542 Y97.834 E0.02461
G1 X140.136 Y111.429 E0.96752
G1 X139.647 Y111.429 E0.02461
G1 X126.542 Y98.323 E0.93271
G1 X126.542 Y98.813 E0.02461
G1 X139.158 Y111.429 E0.89790
G1 X138.669 Y111.429 E0.02461
G1 X126.542 Y99.302 E0.86309
G1 X126.542 Y99.791 E0.02461
G1 X138.180 Y111.429 E0.82828
G1 X137.690 Y111.429 E0.02461
G1 X126.542 Y100.280 E0.79347
G1 X126.542 Y100.769 E0.02461
G1 X137.201 Y111.429 E0.75866
G1 X136.712 Y111.429 E0.02461
G1 X126.542 Y101.258 E0.72385
G1 X126.542 Y101.747 E0.02461
G1 X136.223 Y111.429 E0.68905
G1 X135.734 Y111.429 E0.02461
G1 X126.542 Y102.236 E0.65424
G1 X126.542 Y102.725 E0.02461
G1 X135.245 Y111.429 E0.61943
G1 X134.756 Y111.429 E0.02461
G1 X126.542 Y103.214 E0.58462
G1 X126.542 Y103.704 E0.02461
G1 X134.267 Y111.429 E0.54981
G1 X133.778 Y111.429 E0.02461
G1 X126.542 Y104.193 E0.51500
G1 X126.542 Y104.682 E0.02461
G1 X133.289 Y111.429 E0.48019
G1 X132.799 Y111.429 E0.02461
G1 X126.542 Y105.171 E0.44538
G1 X126.542 Y105.660 E0.02461
G1 X132.310 Y111.429 E0.41057
G1 X131.821 Y111.429 E0.02461
G1 X126.542 Y106.149 E0.37576
G1 X126.542 Y106.638 E0.02461
G1 X131.332 Y111.429 E0.34095
G1 X130.843 Y111.429 E0.02461
G1 X126.542 Y107.127 E0.30614
G1 X126.542 Y107.616 E0.02461
G1 X130.354 Y111.429 E0.27133
G1 X129.865 Y111.429 E0.02461
G1 X126.542 Y108.105 E0.23652
G1 X126.542 Y108.595 E0.02461
G1 X129.376 Y111.429 E0.20171
G1 X128.887 Y111.429 E0.02461
G1 X126.542 Y109.084 E0.16690
G1 X126.542 Y109.573 E0.02461
G1 X128.398 Y111.429 E0.13209
G1 X127.908 Y111.429 E0.02461
G1 X126.542 Y110.062 E0.09728
G1 X126.542 Y110.551 E0.02461
G1 X127.419 Y111.429 E0.06247
G1 X126.930 Y111.429 E0.02461
G1 X126.386 Y110.885 E0.03871
G1 E-2.24000 F4200.000
;WIPE_START
G1 F6240.000
G1 X126.930 Y111.429 E-0.49185
G1 X127.419 Y111.429 E-0.31274
G1 X127.301 Y111.310 E-0.10741
;WIPE_END
G1 E-0.04800 F4200.000
G1 Z0.550 F7800.000
G1 X59.078 Y108.221
G1 Z0.350
G1 E3.20000 F2400.000
;TYPE:Perimeter
;WIDTH:0.42
G1 F1800.000
G1 X71.277 Y108.221 E0.61225
G1 X71.277 Y113.421 E0.26094
G1 X59.078 Y113.421 E0.61225
G1 X59.078 Y108.281 E0.25793
G1 X59.422 Y108.566 F7800.000
G1 F1800.000
G1 X70.932 Y108.566 E0.57763
G1 X70.932 Y113.076 E0.22633
G1 X59.422 Y113.076 E0.57763
G1 X59.422 Y108.626 E0.22332
G1 X59.767 Y108.911 F7800.000
;TYPE:External perimeter
G1 F1800.000
G1 X70.587 Y108.911 E0.54301
G1 X70.587 Y112.731 E0.19171
G1 X59.767 Y112.731 E0.54301
G1 X59.767 Y108.971 E0.18870
G1 X59.608 Y108.544 F7800.000
G1 E-2.24000 F4200.000
;WIPE_START
G1 F6240.000
G1 X61.194 Y108.963 E-0.91200
;WIPE_END
G1 E-0.04800 F4200.000
G1 Z0.550 F7800.000
G1 X79.078 Y108.221
G1 Z0.350
G1 E3.20000 F2400.000
;TYPE:Perimeter
G1 F1800.000
G1 X91.277 Y108.221 E0.61225
G1 X91.277 Y113.421 E0.26094
G1 X79.078 Y113.421 E0.61225
G1 X79.078 Y108.281 E0.25793
G1 X79.422 Y108.566 F7800.000
G1 F1800.000
G1 X90.932 Y108.566 E0.57763
G1 X90.932 Y113.076 E0.22633
G1 X79.422 Y113.076 E0.57763
G1 X79.422 Y108.626 E0.22332
G1 X79.767 Y108.911 F7800.000
;TYPE:External perimeter
G1 F1800.000
G1 X90.587 Y108.911 E0.54301
G1 X90.587 Y112.731 E0.19171
G1 X79.767 Y112.731 E0.54301
G1 X79.767 Y108.971 E0.18870
G1 X79.608 Y108.544 F7800.000
G1 E-2.24000 F4200.000
;WIPE_START
G1 F6240.000
G1 X81.194 Y108.963 E-0.91200
;WIPE_END
G1 E-0.04800 F4200.000
G1 Z0.550 F7800.000
G1 X39.078 Y108.221
G1 Z0.350
G1 E3.20000 F2400.000
;TYPE:Perimeter
G1 F1800.000
G1 X51.277 Y108.221 E0.61225
G1 X51.277 Y113.421 E0.26094
G1 X39.078 Y113.421 E0.61225
G1 X39.078 Y108.281 E0.25793
G1 X39.422 Y108.566 F7800.000
G1 F1800.000
G1 X50.932 Y108.566 E0.57763
G1 X50.932 Y113.076 E0.22633
G1 X39.422 Y113.076 E0.57763
G1 X39.422 Y108.626 E0.22332
G1 X39.767 Y108.911 F7800.000
;TYPE:External perimeter
G1 F1800.000
G1 X50.587 Y108.911 E0.54301
G1 X50.587 Y112.731 E0.19171
G1 X39.767 Y112.731 E0.54301
G1 X39.767 Y108.971 E0.18870
G1 X39.608 Y108.544 F7800.000
G1 E-2.24000 F4200.000
;WIPE_START
G1 F6240.000
G1 X41.194 Y108.963 E-0.91200
;WIPE_END
G1 E-0.04800 F4200.000
G1 Z0.550 F7800.000
G1 X16.104 Y166.112
G1 Z0.350
G1 E3.20000 F2400.000
;TYPE:Perimeter
G1 F1800.000
G1 X16.982 Y166.475 E0.04767
G1 X17.729 Y167.049 E0.04728
G1 X18.303 Y167.796 E0.04729
G1 X18.664 Y168.667 E0.04729
G1 X18.787 Y169.601 E0.04729
G1 X18.664 Y170.535 E0.04728
G1 X18.303 Y171.406 E0.04729
G1 X17.729 Y172.153 E0.04729
G1 X16.982 Y172.727 E0.04728
G1 X16.111 Y173.087 E0.04729
G1 X15.177 Y173.210 E0.04729
G1 X14.243 Y173.087 E0.04729
G1 X13.373 Y172.727 E0.04729
G1 X12.625 Y172.153 E0.04728
G1 X12.052 Y171.406 E0.04729
G1 X11.691 Y170.535 E0.04729
G1 X11.568 Y169.601 E0.04728
G1 X11.691 Y168.667 E0.04729
G1 X12.052 Y167.796 E0.04729
G1 X12.625 Y167.049 E0.04729
G1 X13.373 Y166.475 E0.04728
G1 X14.243 Y166.115 E0.04729
G1 X15.121 Y165.999 E0.04443
G1 X16.045 Y166.105 E0.04666
G1 X16.005 Y166.448 F7800.000
G1 F1800.000
G1 X16.808 Y166.776 E0.04353
G1 X17.483 Y167.295 E0.04273
G1 X18.002 Y167.970 E0.04273
G1 X18.328 Y168.757 E0.04273
G1 X18.439 Y169.601 E0.04273
G1 X18.328 Y170.445 E0.04273
G1 X18.002 Y171.232 E0.04273
G1 X17.483 Y171.907 E0.04273
G1 X16.808 Y172.425 E0.04273
G1 X16.021 Y172.751 E0.04273
G1 X15.177 Y172.862 E0.04273
G1 X14.333 Y172.751 E0.04273
G1 X13.547 Y172.425 E0.04273
G1 X12.871 Y171.907 E0.04273
G1 X12.353 Y171.232 E0.04273
G1 X12.027 Y170.445 E0.04273
G1 X11.916 Y169.601 E0.04273
G1 X12.027 Y168.757 E0.04273
G1 X12.353 Y167.970 E0.04273
G1 X12.871 Y167.295 E0.04273
G1 X13.547 Y166.776 E0.04273
G1 X14.333 Y166.451 E0.04273
G1 X15.124 Y166.347 E0.04002
G1 X15.946 Y166.441 E0.04152
G1 X15.907 Y166.783 F7800.000
;TYPE:External perimeter
G1 F1800.000
G1 X16.634 Y167.078 E0.03938
G1 X17.237 Y167.541 E0.03817
G1 X17.700 Y168.144 E0.03817
G1 X17.992 Y168.847 E0.03817
G1 X18.091 Y169.601 E0.03817
G1 X17.992 Y170.355 E0.03817
G1 X17.700 Y171.058 E0.03817
G1 X17.237 Y171.661 E0.03817
G1 X16.634 Y172.124 E0.03817
G1 X15.931 Y172.415 E0.03817
G1 X15.177 Y172.514 E0.03817
G1 X14.423 Y172.415 E0.03817
G1 X13.721 Y172.124 E0.03817
